svg/u1f936_1f3fe.svg

<svg viewBox="0 0 128 128" xmlns="http://www.w3.org/2000/svg">
  <g id="neck">
    <path d="M64,90.05h-9.08v9.98c0,4.51,3.7,8.17,8.26,8.17h1.65c4.56,0,8.26-3.66,8.26-8.17v-9.98H64z" fill="#E59600"/>
  </g>
  <g id="shirt">
    <linearGradient id="SVGID_1_" gradientTransform="matrix(1 0 0 -1 0 130)" gradientUnits="userSpaceOnUse" x1="64" x2="64" y1="34.2259" y2="-0.1932">
      <stop offset="0" stop-color="#F44336"/>
      <stop offset="0.3592" stop-color="#E73B32"/>
      <stop offset="1" stop-color="#C62828"/>
    </linearGradient>
    <path d="M64.14,95.97c-0.05,0-0.09,0-0.14,0c-25.65,0.03-52,7.1-52,24.99v2.77h1.44h1.45h98.22h1.45 H116v-2.77C116,104.1,89.9,95.97,64.14,95.97z" fill="url(#SVGID_1_)"/>
    <g>
      <radialGradient id="SVGID_2_" cx="64.2886" cy="115.2144" gradientUnits="userSpaceOnUse" r="6.3728">
        <stop offset="0.5391" stop-color="#F5F5F5"/>
        <stop offset="1" stop-color="#BDBDBD"/>
      </radialGradient>
      <circle cx="64" cy="116.21" fill="url(#SVGID_2_)" r="5"/>
    </g>
    <radialGradient id="SVGID_3_" cx="64.0938" cy="18.8662" gradientTransform="matrix(1 0 0 -0.8801 0 127.7381)" gradientUnits="userSpaceOnUse" r="31.9045">
      <stop offset="0.7688" stop-color="#F5F5F5"/>
      <stop offset="1" stop-color="#E0E0E0"/>
    </radialGradient>
    <path d="M81.58,89.12c-6.24,3.57-9.42,4.54-17.56,4.69c-0.01,0-0.02,0-0.03,0c-0.01,0-0.02,0-0.03,0 c-8.13-0.15-11.31-1.12-17.56-4.69C43.43,87.42,35.5,99.38,35.5,99.38s3.46,7.53,9,12.12c7.75,6.42,19.5-7.92,19.5-7.92 s11.75,14.33,19.5,7.92c5.55-4.59,9-12.12,9-12.12S84.57,87.42,81.58,89.12z" fill="url(#SVGID_3_)"/>
  </g>
  <g id="face_1_">
    <path id="ears" d="M90.76,49.55h-7.22H44.41h-7.22c-5.78,0-10.5,5.17-10.5,11.5s4.73,11.5,10.5,11.5h7.22 h39.12h7.22c5.78,0,10.5-5.18,10.5-11.5S96.54,49.55,90.76,49.55z" fill="#7A4C32"/>
    <g id="head_1_">
      <path id="head_2_" d="M64.24,94.17c-17.2,0-33.13-11.35-33.13-35.4c0-19.33,13.49-30.75,25.23-34.44 c2.8-0.88,5.5-1.32,7.9-1.32c2.38,0,5.07,0.43,7.85,1.3c11.76,3.67,25.28,15.11,25.28,34.45C97.37,82.82,81.44,94.17,64.24,94.17z " fill="#A56C43"/>
      <path id="wrinkle_3_" d="M48.3,44.56c-0.4,0-0.77-0.24-0.93-0.63c-0.2-0.51,0.05-1.1,0.56-1.3 c0.27-0.11,6.76-2.63,15.8-2.63c9.02,0,15.98,2.52,16.27,2.62c0.52,0.19,0.78,0.76,0.59,1.28c-0.19,0.52-0.76,0.78-1.28,0.6 c-0.07-0.03-6.93-2.5-15.58-2.5c-8.66,0-15,2.47-15.06,2.49C48.54,44.53,48.42,44.56,48.3,44.56z" fill="#875334"/>
      <path id="wrinkle_2_" d="M75.14,38.51c-0.1,0-0.2-0.01-0.3-0.05c-0.05-0.02-5.13-1.6-10.86-1.6 c-5.73,0-10.81,1.58-10.86,1.6c-0.52,0.17-1.09-0.12-1.25-0.65c-0.17-0.53,0.12-1.09,0.65-1.26c0.22-0.07,5.42-1.69,11.47-1.69 c6.05,0,11.25,1.62,11.47,1.69c0.53,0.17,0.82,0.73,0.65,1.26C75.96,38.24,75.56,38.51,75.14,38.51z" fill="#875334"/>
      <path id="wrinkle_1_" d="M46.55,79.81c-0.26,0-0.51-0.1-0.71-0.29c-0.39-0.39-0.39-1.02,0-1.41L52.95,71 c0.39-0.39,1.02-0.39,1.41,0s0.39,1.02,0,1.41l-7.11,7.11C47.06,79.72,46.8,79.81,46.55,79.81z" fill="#875334"/>
      <path id="wrinkle" d="M81.4,79.81c-0.26,0-0.51-0.1-0.71-0.29l-7.11-7.11c-0.39-0.39-0.39-1.02,0-1.41 s1.02-0.39,1.41,0l7.11,7.11c0.39,0.39,0.39,1.02,0,1.41C81.91,79.72,81.66,79.81,81.4,79.81z" fill="#875334"/>
    </g>
    <g id="eyebrows_x5F_grey">
      <path d="M54.98,50.09c-0.92-1.22-3.05-2.99-7.18-2.99s-6.26,1.77-7.18,2.99c-0.41,0.54-0.3,1.16-0.02,1.53 c0.26,0.35,1.03,0.67,1.89,0.38s2.52-1.15,5.31-1.17c2.79,0.02,4.46,0.88,5.31,1.17s1.62-0.03,1.89-0.38 C55.28,51.25,55.38,50.63,54.98,50.09z" fill="#9E9E9E"/>
      <path d="M87.53,50.09c-0.92-1.22-3.05-2.99-7.18-2.99s-6.26,1.77-7.18,2.99c-0.41,0.54-0.3,1.16-0.02,1.53 c0.26,0.35,1.03,0.67,1.89,0.38c0.85-0.29,2.52-1.15,5.31-1.17c2.79,0.02,4.46,0.88,5.31,1.17s1.62-0.03,1.89-0.38 C87.84,51.25,87.94,50.63,87.53,50.09z" fill="#9E9E9E"/>
    </g>
    <g id="eyes">
      <ellipse cx="47.8" cy="59.07" fill="#42312C" rx="4.83" ry="5"/>
      <ellipse cx="80.36" cy="59.07" fill="#42312C" rx="4.83" ry="5"/>
    </g>
    <path id="nose" d="M67.76,68.18c-0.1-0.04-0.21-0.07-0.32-0.08h-6.94c-0.11,0.01-0.21,0.04-0.31,0.08 c-0.63,0.25-0.97,0.91-0.68,1.6s1.68,2.64,4.46,2.64s4.16-1.95,4.46-2.64C68.73,69.09,68.39,68.44,67.76,68.18z" fill="#875334"/>
    <path id="mouth" d="M72.21,75.95c-3.12,1.86-13.36,1.86-16.48,0c-1.79-1.07-3.63,0.56-2.88,2.19 c0.73,1.6,6.32,5.32,11.15,5.32s10.34-3.72,11.07-5.32C75.81,76.51,74,74.88,72.21,75.95z" fill="#473530"/>
    <g id="glasses">
      <path d=" M54.18,65.9l0.37-0.14c0.03-5.2,18.55-5.06,18.52,0.14l0,0" fill="none" stroke="#EEEEEE" stroke-linecap="round" stroke-linejoin="round" stroke-miterlimit="10" stroke-width="3"/>
      <path d="M54.94,70.87H40.65c-1.41,0-2.55-1.14-2.55-2.55v-5.34c0-1.41,1.14-2.55,2.55-2.55h14.29 c1.41,0,2.55,1.14,2.55,2.55v5.34C57.49,69.73,56.35,70.87,54.94,70.87z" fill="#BBDEFB"/>
      <path d="M87.5,70.87H73.21c-1.41,0-2.55-1.14-2.55-2.55v-5.34c0-1.41,1.14-2.55,2.55-2.55H87.5 c1.41,0,2.55,1.14,2.55,2.55v5.34C90.05,69.73,88.91,70.87,87.5,70.87z" fill="#BBDEFB"/>
    </g>
    <linearGradient id="hair_x5F_grey_1_" gradientUnits="userSpaceOnUse" x1="64" x2="64" y1="10.2676" y2="45.3486">
      <stop offset="0" stop-color="#E0E0E0"/>
      <stop offset="1" stop-color="#9E9E9E"/>
    </linearGradient>
    <path id="hair_x5F_grey" d="M91.22,22.67C84.65,15.47,67.9,11.13,64,14.84 c-3.9-3.71-20.65,0.63-27.22,7.83c-7.31,8.01-11.17,24.69-8.34,36.42c0.26,1.08,2.76,1.08,2.95-0.02 c1.51-8.6,8.29-20.52,16.86-22.94c4.09-1.16,13-1.48,15.76-6.62c2.75,5.15,11.66,5.47,15.76,6.62 c8.57,2.43,15.35,14.34,16.86,22.94c0.19,1.09,2.69,1.1,2.95,0.02C102.39,47.36,98.53,30.68,91.22,22.67z" fill="url(#hair_x5F_grey_1_)"/>
  </g>
  <g id="cap">
    <radialGradient id="SVGID_4_" cx="63.4588" cy="87.5786" gradientTransform="matrix(1 0 0 -0.8711 0 118.7122)" gradientUnits="userSpaceOnUse" r="40.6843">
      <stop offset="0.3632" stop-color="#C62828"/>
      <stop offset="1" stop-color="#F24235"/>
    </radialGradient>
    <path d="M64.64,4.16c-47.36,0-38.53,50.18-38.53,50.18s5.05-26.47,37.39-26.47 s38.05,27.34,38.05,27.34S112,4.16,64.64,4.16z" fill="url(#SVGID_4_)"/>
    <radialGradient id="SVGID_5_" cx="64.1183" cy="35.1078" gradientTransform="matrix(1 0 0 1.0213 0 -0.7463)" gradientUnits="userSpaceOnUse" r="46.9283">
      <stop offset="0.7774" stop-color="#F5F5F5"/>
      <stop offset="1" stop-color="#E0E0E0"/>
    </radialGradient>
    <path d="M95.68,38.71c-0.2,0-0.39,0.01-0.58,0.02c-1.03,0.06-1.8-0.96-1.47-1.95 c0.4-1.18,0.59-2.46,0.53-3.78c-0.23-5.14-4.3-9.43-9.43-9.9c-2.64-0.24-5.09,0.5-7.04,1.9c-0.94,0.67-2.25,0.14-2.38-1.01 c-0.43-3.9-2.58-9.77-11.7-9.77s-11.27,5.87-11.7,9.77c-0.13,1.15-1.45,1.68-2.38,1c-2.05-1.47-4.64-2.22-7.43-1.86 c-4.65,0.6-8.4,4.38-8.97,9.04c-0.2,1.61-0.02,3.15,0.45,4.56c0.32,0.96-0.35,1.96-1.36,1.97c-1.25,0.01-2.57,0.28-3.94,0.94 c-3.43,1.65-5.73,5.12-5.67,8.92c0.13,8.23,8.49,15.04,8.49,15.04s0.1-12.59,4.8-20.66c4.39-7.55,13.75-13.95,27.62-13.95 c13.43,0,22.73,6.14,27.38,13.47c4.08,6.42,6.23,21.03,6.23,21.03s8.89-7.78,8.21-15.11C104.86,43.06,101.02,38.71,95.68,38.71z" fill="url(#SVGID_5_)"/>
  </g>
</svg>

<svg viewBox="0 0 128 128" xmlns="http://www.w3.org/2000/svg">
  <defs>
    <linearGradient id="SVGID_1_" gradientTransform="matrix(1 0 0 -1 0 0)" gradientUnits="userSpaceOnUse" x1="64" x2="64" y1="-95.7741" y2="-130.1932">
      <stop offset="0" stop-color="#F44336"/>
      <stop offset="0.3592" stop-color="#E73B32"/>
      <stop offset="1" stop-color="#C62828"/>
    </linearGradient>
    <radialGradient id="SVGID_3_" cx="64.0938" cy="-126.274239" gradientTransform="matrix(1 0 0 -0.8801 0 0)" gradientUnits="userSpaceOnUse" r="31.9045">
      <stop offset="0.7688" stop-color="#F5F5F5"/>
      <stop offset="1" stop-color="#E0E0E0"/>
    </radialGradient>
    <linearGradient id="hair_x5F_grey_1_" gradientUnits="userSpaceOnUse" x1="64" x2="64" y1="10.2676" y2="45.3486">
      <stop offset="0" stop-color="#E0E0E0"/>
      <stop offset="1" stop-color="#9E9E9E"/>
    </linearGradient>
    <radialGradient id="SVGID_4_" cx="63.4588" cy="-48.699898" gradientTransform="matrix(1 0 0 -0.8711 0 0)" gradientUnits="userSpaceOnUse" r="40.6843">
      <stop offset="0.3632" stop-color="#C62828"/>
      <stop offset="1" stop-color="#F24235"/>
    </radialGradient>
    <radialGradient id="SVGID_5_" cx="64.1183" cy="34.377065" gradientTransform="matrix(1 0 0 1.0213 0 0)" gradientUnits="userSpaceOnUse" r="46.9283">
      <stop offset="0.7774" stop-color="#F5F5F5"/>
      <stop offset="1" stop-color="#E0E0E0"/>
    </radialGradient>
    <radialGradient id="SVGID_2_" cx="64.2886" cy="115.2144" gradientUnits="userSpaceOnUse" r="6.3728">
      <stop offset="0.5391" stop-color="#F5F5F5"/>
      <stop offset="1" stop-color="#BDBDBD"/>
    </radialGradient>
  </defs>
  <path d="M64,90.05 L54.92,90.05 L54.92,100.03 C54.92,104.54 58.62,108.2 63.18,108.2 L64.83,108.2 C69.39,108.2 73.09,104.54 73.09,100.03 L73.09,90.05 L64,90.05 Z" fill="#E59600"/>
  <path d="M64.14,95.97 C64.09,95.97 64.05,95.97 64,95.97 C38.35,96 12,103.07 12,120.96 L12,123.73 L13.44,123.73 L14.89,123.73 L113.11,123.73 L114.56,123.73 L116,123.73 L116,120.96 C116,104.1 89.9,95.97 64.14,95.97 Z" fill="url(#SVGID_1_)"/>
  <path d="M69,116.21 A5 5 0 1 1 59,116.21 A5 5 0 1 1 69,116.21 Z" fill="url(#SVGID_2_)"/>
  <path d="M81.58,89.12 C75.34,92.69 72.16,93.66 64.02,93.81 C64.01,93.81 64,93.81 63.99,93.81 C63.98,93.81 63.97,93.81 63.96,93.81 C55.83,93.66 52.65,92.69 46.4,89.12 C43.43,87.42 35.5,99.38 35.5,99.38 C35.5,99.38 38.96,106.91 44.5,111.5 C52.25,117.92 64,103.58 64,103.58 C64,103.58 75.75,117.91 83.5,111.5 C89.05,106.91 92.5,99.38 92.5,99.38 C92.5,99.38 84.57,87.42 81.58,89.12 Z" fill="url(#SVGID_3_)"/>
  <path id="ears" d="M90.76,49.55 L83.54,49.55 L44.41,49.55 L37.19,49.55 C31.41,49.55 26.69,54.72 26.69,61.05 C26.69,67.38 31.42,72.55 37.19,72.55 L44.41,72.55 L83.53,72.55 L90.75,72.55 C96.53,72.55 101.25,67.37 101.25,61.05 C101.25,54.73 96.54,49.55 90.76,49.55 Z" fill="#7A4C32"/>
  <path id="head_2_" d="M64.24,94.17 C47.04,94.17 31.11,82.82 31.11,58.77 C31.11,39.44 44.6,28.02 56.34,24.33 C59.14,23.45 61.84,23.01 64.24,23.01 C66.62,23.01 69.31,23.44 72.09,24.31 C83.85,27.98 97.37,39.42 97.37,58.76 C97.37,82.82 81.44,94.17 64.24,94.17 Z" fill="#A56C43"/>
  <path id="wrinkle_3_" d="M48.3,44.56 C47.9,44.56 47.53,44.32 47.37,43.93 C47.17,43.42 47.42,42.83 47.93,42.63 C48.2,42.52 54.69,40 63.73,40 C72.75,40 79.71,42.52 80,42.62 C80.52,42.81 80.78,43.38 80.59,43.9 C80.4,44.42 79.83,44.68 79.31,44.5 C79.24,44.47 72.38,42 63.73,42 C55.07,42 48.73,44.47 48.67,44.49 C48.54,44.53 48.42,44.56 48.3,44.56 Z" fill="#875334"/>
  <path id="wrinkle_2_" d="M75.14,38.51 C75.04,38.51 74.94,38.5 74.84,38.46 C74.79,38.44 69.71,36.86 63.98,36.86 C58.25,36.86 53.17,38.44 53.12,38.46 C52.6,38.63 52.03,38.34 51.87,37.81 C51.7,37.28 51.99,36.72 52.52,36.55 C52.74,36.48 57.94,34.86 63.99,34.86 C70.04,34.86 75.24,36.48 75.46,36.55 C75.99,36.72 76.28,37.28 76.11,37.81 C75.96,38.24 75.56,38.51 75.14,38.51 Z" fill="#875334"/>
  <path id="wrinkle_1_" d="M46.55,79.81 C46.29,79.81 46.04,79.71 45.84,79.52 C45.45,79.13 45.45,78.5 45.84,78.11 L52.95,71 C53.34,70.61 53.97,70.61 54.36,71 C54.75,71.39 54.75,72.02 54.36,72.41 L47.25,79.52 C47.06,79.72 46.8,79.81 46.55,79.81 Z" fill="#875334"/>
  <path id="wrinkle" d="M81.4,79.81 C81.14,79.81 80.89,79.71 80.69,79.52 L73.58,72.41 C73.19,72.02 73.19,71.39 73.58,71 C73.97,70.61 74.6,70.61 74.99,71 L82.1,78.11 C82.49,78.5 82.49,79.13 82.1,79.52 C81.91,79.72 81.66,79.81 81.4,79.81 Z" fill="#875334"/>
  <path d="M54.98,50.09 C54.06,48.87 51.93,47.1 47.8,47.1 C43.67,47.1 41.54,48.87 40.62,50.09 C40.21,50.63 40.32,51.25 40.6,51.62 C40.86,51.97 41.63,52.29 42.49,52 C43.35,51.71 45.01,50.85 47.8,50.83 C50.59,50.85 52.26,51.71 53.11,52 C53.96,52.29 54.73,51.97 55,51.62 C55.28,51.25 55.38,50.63 54.98,50.09 Z" fill="#9E9E9E"/>
  <path d="M87.53,50.09 C86.61,48.87 84.48,47.1 80.35,47.1 C76.22,47.1 74.09,48.87 73.17,50.09 C72.76,50.63 72.87,51.25 73.15,51.62 C73.41,51.97 74.18,52.29 75.04,52 C75.89,51.71 77.56,50.85 80.35,50.83 C83.14,50.85 84.81,51.71 85.66,52 C86.51,52.29 87.28,51.97 87.55,51.62 C87.84,51.25 87.94,50.63 87.53,50.09 Z" fill="#9E9E9E"/>
  <path d="M52.63,59.07 A4.83 5 0 1 1 42.97,59.07 A4.83 5 0 1 1 52.63,59.07 Z" fill="#42312C"/>
  <path d="M85.19,59.07 A4.83 5 0 1 1 75.53,59.07 A4.83 5 0 1 1 85.19,59.07 Z" fill="#42312C"/>
  <path id="nose" d="M67.76,68.18 C67.66,68.14 67.55,68.11 67.44,68.1 L60.5,68.1 C60.39,68.11 60.29,68.14 60.19,68.18 C59.56,68.43 59.22,69.09 59.51,69.78 C59.8,70.47 61.19,72.42 63.97,72.42 C66.75,72.42 68.13,70.47 68.43,69.78 C68.73,69.09 68.39,68.44 67.76,68.18 Z" fill="#875334"/>
  <path id="mouth" d="M72.21,75.95 C69.09,77.81 58.85,77.81 55.73,75.95 C53.94,74.88 52.1,76.51 52.85,78.14 C53.58,79.74 59.17,83.46 64,83.46 C68.83,83.46 74.34,79.74 75.07,78.14 C75.81,76.51 74,74.88 72.21,75.95 Z" fill="#473530"/>
  <path d="M53.19,64.727 Q53.79,62.603 56.945,61.448 Q59.81,60.4 63.844,60.43 Q74.601,60.511 74.57,65.909 Q74.561,67.409 73.061,67.4 Q71.561,67.391 71.57,65.891 Q71.575,65.088 69.657,64.354 Q67.312,63.456 63.821,63.43 Q60.331,63.404 57.976,64.265 Q56.055,64.969 56.05,65.769 Q56.044,66.798 55.081,67.163 L54.711,67.303 Q53.308,67.834 52.777,66.431 Q52.346,65.291 53.19,64.727 Z" fill="#EEEEEE"/>
  <path d="M54.94,70.87 L40.65,70.87 C39.24,70.87 38.1,69.73 38.1,68.32 L38.1,62.98 C38.1,61.57 39.24,60.43 40.65,60.43 L54.94,60.43 C56.35,60.43 57.49,61.57 57.49,62.98 L57.49,68.32 C57.49,69.73 56.35,70.87 54.94,70.87 Z" fill="#BBDEFB"/>
  <path d="M87.5,70.87 L73.21,70.87 C71.8,70.87 70.66,69.73 70.66,68.32 L70.66,62.98 C70.66,61.57 71.8,60.43 73.21,60.43 L87.5,60.43 C88.91,60.43 90.05,61.57 90.05,62.98 L90.05,68.32 C90.05,69.73 88.91,70.87 87.5,70.87 Z" fill="#BBDEFB"/>
  <path id="hair_x5F_grey" d="M91.22,22.67 C84.65,15.47 67.9,11.13 64,14.84 C60.1,11.13 43.35,15.47 36.78,22.67 C29.47,30.68 25.61,47.36 28.44,59.09 C28.7,60.17 31.2,60.17 31.39,59.07 C32.9,50.47 39.68,38.55 48.25,36.13 C52.34,34.97 61.25,34.65 64.01,29.51 C66.76,34.66 75.67,34.98 79.77,36.13 C88.34,38.56 95.12,50.47 96.63,59.07 C96.82,60.16 99.32,60.17 99.58,59.09 C102.39,47.36 98.53,30.68 91.22,22.67 Z" fill="url(#hair_x5F_grey_1_)"/>
  <path d="M64.64,4.16 C17.28,4.16 26.11,54.34 26.11,54.34 C26.11,54.34 31.16,27.87 63.5,27.87 C95.84,27.87 101.55,55.21 101.55,55.21 C101.55,55.21 112,4.16 64.64,4.16 Z" fill="url(#SVGID_4_)"/>
  <path d="M95.68,38.71 C95.48,38.71 95.29,38.72 95.1,38.73 C94.07,38.79 93.3,37.77 93.63,36.78 C94.03,35.6 94.22,34.32 94.16,33 C93.93,27.86 89.86,23.57 84.73,23.1 C82.09,22.86 79.64,23.6 77.69,25 C76.75,25.67 75.44,25.14 75.31,23.99 C74.88,20.09 72.73,14.22 63.61,14.22 C54.49,14.22 52.34,20.09 51.91,23.99 C51.78,25.14 50.46,25.67 49.53,24.99 C47.48,23.52 44.89,22.77 42.1,23.13 C37.45,23.73 33.7,27.51 33.13,32.17 C32.93,33.78 33.11,35.32 33.58,36.73 C33.9,37.69 33.23,38.69 32.22,38.7 C30.97,38.71 29.65,38.98 28.28,39.64 C24.85,41.29 22.55,44.76 22.61,48.56 C22.74,56.79 31.1,63.6 31.1,63.6 C31.1,63.6 31.2,51.01 35.9,42.94 C40.29,35.39 49.65,28.99 63.52,28.99 C76.95,28.99 86.25,35.13 90.9,42.46 C94.98,48.88 97.13,63.49 97.13,63.49 C97.13,63.49 106.02,55.71 105.34,48.38 C104.86,43.06 101.02,38.71 95.68,38.71 Z" fill="url(#SVGID_5_)"/>
</svg>
